icons/tab-external-24.svg

<svg width="24" height="24" viewBox="0 0 24 24">
  <path
    d="M3 5.75C3 4.7835 3.7835 4 4.75 4H19.25C20.2165 4 21 4.7835 21 5.75V18.5H23C23.4142 18.5 23.75 18.8358 23.75 19.25C23.75 19.6642 23.4142 20 23 20H20.35C19.8806 20 19.5 19.6194 19.5 19.15V5.75C19.5 5.61193 19.3881 5.5 19.25 5.5H4.75C4.61193 5.5 4.5 5.61193 4.5 5.75V19.15C4.5 19.6194 4.11944 20 3.65 20H1C0.585786 20 0.25 19.6642 0.25 19.25C0.25 18.8358 0.585786 18.5 1 18.5H3V5.75Z" />
  <path
    d="M16.4036 13.6993C16.4071 13.7999 16.3904 13.9003 16.3543 13.9943C16.3182 14.0884 16.2636 14.1742 16.1936 14.2466C16.1237 14.3191 16.0399 14.3767 15.9472 14.4161C15.8544 14.4555 15.7548 14.4757 15.654 14.4757C15.5533 14.4757 15.4536 14.4555 15.3609 14.4161C15.2682 14.3767 15.1844 14.3191 15.1144 14.2466C14.4607 13.5694 13.1933 12.2709 13.1933 12.2709L9.05264 16.4116C8.91199 16.5522 8.72122 16.6313 8.52231 16.6313C8.3234 16.6313 8.13263 16.5522 7.99198 16.4116C7.85133 16.2709 7.77231 16.0802 7.77231 15.8813C7.77231 15.6823 7.85133 15.4916 7.99198 15.3509L12.1326 11.2103L10.1911 9.27043C10.0562 9.13061 9.98075 8.94387 9.98075 8.74953C9.98075 8.5552 10.0562 8.36846 10.1911 8.22864C10.3261 8.08883 10.5101 8.00686 10.7043 8L15.654 8C15.8528 8.00012 16.0434 8.07913 16.1839 8.21967C16.3244 8.36021 16.4034 8.55078 16.4036 8.74953V13.6993Z" />
</svg>

<svg xmlns="http://www.w3.org/2000/svg" width="24" height="24" viewBox="0 0 24 24"><path d="M3 5.75C3 4.784 3.784 4 4.75 4h14.5c.966 0 1.75.784 1.75 1.75V18.5h2a.75.75 0 0 1 0 1.5h-2.65a.85.85 0 0 1-.85-.85V5.75a.25.25 0 0 0-.25-.25H4.75a.25.25 0 0 0-.25.25v13.4c0 .47-.38.85-.85.85H1a.75.75 0 0 1 0-1.5h2V5.75Z"/><path d="M16.404 13.7a.75.75 0 0 1-1.29.547 689.448 689.448 0 0 0-1.92-1.976l-4.141 4.14a.75.75 0 0 1-1.061-1.06l4.14-4.14-1.94-1.94A.75.75 0 0 1 10.703 8h4.95a.75.75 0 0 1 .75.75v4.95Z"/></svg>
